X:1
T:ed
T:Elegie
T:For Viola op. 30 
T:Henri Vieuxtemps
%%score ( 1 2 ) { 3 | ( 4 5 ) }
L:1/8
Q:1/4=66
M:4/4
K:Ab
V:1 alto nm="Viola" snm="Vla."
V:2 alto 
V:3 bass nm="Piano" snm="Pno."
V:4 bass 
V:5 bass 
V:1
"^\n" z8 | z8 | z8 | z8 | z8 | z8 |!p! C6 (D>C) | C6 (F>G) | A6!<(! (G>F) | G8-!<)! | %10
!>(! G6!>)! (F>=E) | G2 (F4 E2) | D4- D(DED) | C6!<(! (C=B,!<)! | D!>(!C)!>)! C2- C(FGA) | %15
"_cresc." (A2 G4) c2 |!<(! c3 A FCA,F,!<)! |!f! C,6[K:treble]!p! c2 | c6 (f>g) | a6 a2 | %20
 a4- a(_g({fga} (3g)f)=e | f6 (f>!tenuto!f) | (f2 e4)!<(! (=a>b)!<)! | %23
 b2!>(! (e2-!>)! ed')!<(!!wedge!d'!wedge!d'!<)! | %24
!f! (6:4:6(d'/!>(!=a/b/f/_g/=d/) e4 (!^!e3/2{fe}f/)!>)! |!p!!>(! (_g4!>)!{B)} (!trill(!Tc4{Bc)} | %26
 d4 z2[K:alto]!mf! (^C!<(!^B,!<)! |!f! =D!>(!^C)!>)! ^C2- C!p!(^F^G=A) | (=A2 ^G4)!<(! (^c^B!<)! | %29
!f! =d^c) ^c2- (3c!tenuto!=A!tenuto!^F (3(!tenuto!^C!tenuto!=A,!tenuto!^F,) | %30
 ^C,6[K:treble]!>(! f2!>)! |!p! f6!<(! (g>a)!<)! | a4-!>(! a(gfe)!>)! | (e2{cde} d6{ce)d} | %34
 c6 (c>!tenuto!c) | c2!<(! (B4 =e>f)!<)! |!mf! f2!<(! (B2- B!<)!!>!a)!>!a!>!a | %37
 (6:4:6(a/=e/f/c/d/=A/) B4 Bc | d!<(!cde fgab!<)! | %39
!f! c'4- (6:4:6c'/(=b/c'/)(g/a/)(=e/ (6:4:6f/)(=B/c/)(G/A/)[K:alto](=E/ | %40
 (6:4:6F/)(=B,/C/)(G,/A,/)(=E,/ F,)(C, D,4- | D,2) (C,>A,) A,2 !fermata!G,2 | F,8- | F,8- | F,8- | %45
 F,4!<(! _F,4!<)! | E,8- | E,4- (14:8:14E,/!p!(=D,/E,/G,/B,/D/=D/ E/F/E/_D/B,/G,/E,/ | %48
 (13:8:13=D,/E,/G,/B,/D/=D/E/G/E/_D/B,/G,/E,/) (7:4:7(D,/E,/G,/B,/D/E/G/) (8:1:8B2!<(! c2 d2 =d2[K:treble] e2 =e2 (f2 !fermata!g2)!<)! | %49
!f! a6 (!>!g>f) | (!>!f>e) (!>!e>d) (!>!d>c) (!>!c>B) |!p!!<(! (A2 c2) (e2 f2)!<)! | g6 (!>!a>g) | %53
 g2[K:alto]!f! vG,4({G,B,} A,>G,) | C,2[K:treble]!<(! g6!<)! |!f! a6 (!>!g>f) | %56
 (!>!f>e) (!>!e>d) c=def | g6 f2 | b8- | %59
 (6:4:6bgeBGE[K:alto] (!>!B,2-{!>!B,!>!C!>!B,!>!=A,!>!B,!>!C!>!B,)} (!fermata!G>F) | %60
 E4[K:treble]!p!"_dolce" (efga) | (a2 d2) (cdef) | (f2 B2) (ef!<(! (3g)ba!<)! | %63
!>(! d'4- (6:4:6d'/!>)!(c'/=b/c'/g/a/ (7:4:7=d/e/=B/c/g/f/e/) | B z!p!!<(! (e>=d)!<)! (=d4 | %65
 e) z[K:alto] (E,>=D,) (=D,4 | %66
 (6:4:6E,/)(=D,/E,/G,/F,/A,/ (6:4:6G,/^F,/G,/B,/=A,/C/) (6:4:6(B,/A,/B,/D/C/E/ (6:4:6D/F/=D/F/"_dim."E/G/) | %67
 (6:4:6(F/A/G/B/A/c/[K:treble] (6:4:6=A/c/B/d/c/e/) (6:4:6(d/e/c/e/d/e/ (6:4:6c/e/d/e/c/e/) | %68
!p! (Td2 T=d2) Te2 T=e2 | Tf8 |!<(! (Tg8{fg)}!<)! | a6 (!>!g>f) | %72
 (!>!f>e) (!>!e>d) !>!c!>!d!>!e!>!f | _g8 | !>!f2 !>!g2 !>!a2 !>!b2 |!<(! _c'8!<)! | %76
!mf! c'4- (3c'!wedge!b!wedge!a{gab} (3!wedge!a!wedge!g!wedge!f | %77
 (3e(=de (3a)(=Bc (3e).G.A (3(cAF) | E2 _G2 F2 _F2 | E2 E2 =D2 _D2 | !>!C2 =B,2- B,.F(GF) | %81
 =E[K:treble]c (=B2- Bf)(gf) | =ec' =b6- | b z[K:alto]!f! F,2 G,2 F,2 | [C,C]4 [C,=B,]4 | %85
 [C,B,]4- (6:4:6[C,B,]/!<(!(C,/=E,/=D,/F,/E,/ (6:4:6G,/F,/A,/G,/B,/=A,/)!<)! | %86
 (6:4:6(C/=B,/D/C/=E/=D/ (6:4:6F/E/G/F/A/G/) (6:4:6(B/=A/c/B/c/B/ (6:4:6c/B/c/B/c/B/ || %87
[M:2/4] (6:4:6c/=B/c/B/c/B/!>(! (6:4:6c/B/c/B/c/B/)!>)! ||[M:4/4][K:treble]!p! c6 (d>c) | %89
 c6 (f>g) | a6 (g>^f) |!<(! g8-!<)! |!>(! g6!>)! (f>=e) | g2 f4 e2 | d4- dded | %95
 c6[K:alto]!<(! (C=B,!<)! |!f! DC) C2- (3CFA[K:treble] (3(!invertedturn!cag) | f2 (=e4 c'2) | %98
 c'2- (3c'(!tenuto!a!tenuto!f)[K:alto] (3!tenuto!c!tenuto!A!tenuto!F (3(!tenuto!C!tenuto!A,!tenuto!F,) | %99
 C,6 C2 |!f! C6 (F>G) | =A6 (A>B) | c2 (c>d)!<(! ef_g=A!<)! |!>(! c2!>)!!p! B4!<(! (=e>f)!<)! | %104
!>(! f2!>)!!mp! (B2- B!<(!f).f.f!<)! | %105
!>(! (6:4:6(f/=e/f/c/d/=A/)!>)!!p! (B2- (6:4:6B!>!f)!>!f!>!f!>!f!>!f |!<(! f2 g2 a2 b2!<)! | %107
!f! c'6- (3c'af |[K:alto] (3cAF (3CA,F, C,([C,A,Fc]/>[K:treble]a/) a2- | a4 !fermata!g4 | %110
 (6:4:6f/[K:alto](C,/F,/=E,/G,/F,/ (6:4:6A,/)(G,/B,/=A,/C/=B,/ (6:4:6D/)(C,/[G,=Ec]/=B/d/c/[K:treble] (6:4:6=e/)(=d/f/e/a/g/) | %111
 (6:4:6f/[K:alto](C,/F,/=E,/G,/F,/ (6:4:6A,/)(G,/B,/=A,/C/=B,/ (6:4:6D/)(C,/[G,=Ec]/=B/d/c/[K:treble] (6:4:6=e/)(=d/f/e/a/g/) | %112
 (6:4:6f/[K:alto](C,/F,/=E,/G,/F,/ (6:4:6A,/)(G,/B,/=A,/C/=B,/ (6:4:6D/)(C,/[G,=Ec]/=B/d/c/[K:treble] (6:4:6=e/)(=d/f/e/a/g/ | %113
 (6:4:6f/=e/g/f/)(c/=B/ (6:4:6d/c/)(A/G/_B/A/[K:alto] (6:4:6F/=E/G/F/)(D/C/ (6:4:6_E/D/)(A,/G,/B,/A,/ | %114
 (6:4:6[G,Fd]/c/e/d/)(B/=A/ (6:4:6c/B/)(G/^F/_A/G/ (6:4:6=E/^D/=F/E/)(C/=B,/ (6:4:6_D/C/)(B,/C/_B,/G,/ | %115
 (6:4:6[F,CAf]/=e/g/f/)(c/=B/ (6:4:6d/c/)(A/G/_B/A/ (6:4:6F/=E/G/F/)(D/C/ (6:4:6_E/D/)(A,/G,/B,/A,/ | %116
 (6:4:6[G,Fd]/c/e/d/)(B/=A/ (6:4:6c/B/)(G/^F/_A/G/ (6:4:6=F/=E/G/F/)(C/=B,/ (6:4:6D/C/)(B,/C/_B,/G,/ | %117
 (6:4:6F,/)(C,/[A,Fc]/=B/d/c/) (6:4:6(c/C,/[G,=Ec]/B/d/c/) (6:4:6(c/C,/[A,Fc]/B/d/c/) (6:4:6(c/C,/[G,Ec]/B/d/c/) | %118
 (6:4:6(c/C,/[A,Fc]/=B/d/c/) (6:4:6(c/C,/[G,=Ec]/B/d/c/) (6:4:6(c/C,/[A,Fc]/B/d/c/) (6:4:6(c/C,/[G,Ec]/B/d/c/ | %119
 (6:4:6f/=e/g/f/)(c/=B/ (6:4:6d/c/)(A/G/_B/A/ (6:4:6F/=E/G/F/)(C/=B,/ (6:4:6D/C/)(A,/G,/_B,/A,/ | %120
 (6:4:6F,/!ff!=E,/G,/F,/C,/E,/) (6:4:6(F,/E,/G,/F,/C,/E,/) (6:4:6(F,/E,/G,/F,/C,/E,/) (6:4:6(F,/E,/G,/F,/C,/E,/) | %121
 TF,8{=E,F,} | [F,CAf]2 z2 z4 |] %123
V:2
 x8 | x8 | x8 | x8 | x8 | x8 | x8 | x8 | x8 | x8 | x8 | x8 | x8 | x8 | x8 | x8 | x8 | %17
 x6[K:treble] x2 | x8 | x8 | x8 | x8 | x8 | x8 | x8 | x8 | x6[K:alto] x2 | x8 | x8 | x8 | %30
 x6[K:treble] x2 | x8 | x8 | x8 | x8 | x8 | x8 | x8 | x8 | x23/3[K:alto] x/3 | x8 | x8 | x8 | x8 | %44
 x8 | x8 | x8 | x321/40 | x337/48[K:treble] x | x8 | x8 | x8 | x8 | x2[K:alto] x6 | %54
 x2[K:treble] x6 | x8 | x8 | x8 | x8 | x4[K:alto] x4 | x4[K:treble] x4 | x8 | x8 | x8 | x8 | %65
 x2[K:alto] x6 | x8 | x2[K:treble] x6 | x8 | x8 | x8 | x8 | x8 | x8 | x8 | x8 | x8 | x8 | x8 | x8 | %80
 x8 | x[K:treble] x7 | x8 | x2[K:alto] x6 | x8 | x8 | x8 ||[M:2/4] x4 ||[M:4/4][K:treble] x8 | x8 | %90
 x8 | x8 | x8 | x8 | x8 | x6[K:alto] x2 | x6[K:treble] x2 | x8 | x4[K:alto] x4 | x8 | x8 | =A6 x2 | %102
 x8 | x8 | x8 | x8 | x8 | x8 |[K:alto] x23/4[K:treble] x9/4 | x8 | x/3[K:alto] x17/3[K:treble] x2 | %111
 x/3[K:alto] x17/3[K:treble] x2 | x/3[K:alto] x17/3[K:treble] x2 | x4[K:alto] x4 | x8 | x8 | x8 | %117
 x8 | x8 | x8 | x8 | x8 | x8 |] %123
V:3
!pp! [F,A,C][F,A,C][F,A,C][F,A,C] [F,A,C][F,A,C][F,A,C][F,A,C] | %1
!>(! !/![=A,CE_G]4 !/![A,CEG]4!>)! |"_cresc." !/![B,EF]4 !/![B,DF]4 | %3
!>(! !/![DFGB]4 !/![D=EGB]4!>)! |"_dim." !/![CGA]4 !/![CFA]4 | !/![A,CF]4 !/![A,C]4 | %6
!pp! !/![F,A,]4 !/![F,A,]4 | !/![F,A,]4 !/![F,A,]4 | !/![F,A,D]4!<(! !/![F,A,D]4 | %9
 !/![F,=B,=D]4 !/![F,B,D]4!<)! |!>(! !/![F,B,D]4 !/![F,B,D]4!>)! | !/![F,A,C]4 !/![F,A,C]4 | %12
 !/![F,A,=B,]4 !/![F,A,B,]4 | !/![=E,G,C]4 !/![E,G,C]4 | !/![F,A,C]4 !/![F,A,C]4 | %15
"_cresc." !/![B,C=E]4 !/![B,CE]4 |!<(! !/![A,CF]4 !/![A,CF]4!<)! |!p! [C=E]CCC CCCC | %18
!pp! !/![F,A,C]4 !/![F,A,C]4 | !/![F,A,D]4 !/![F,A,D]4 | !/![E,B,D]4 !/![_G,A,C]4 | %21
 !/![F,A,D]4 !/![F,A,D]4 | !/![_G,B,D]4 !/![G,B,D]4 | !/![_G,B,D]4 !/![G,B,D]4 | %24
!mf! !/![_G,B,DE]4 !/![G,B,DE]4 |!>(! !/![_G,A,CE]4!>)! !/![G,A,CE]4 | %26
!<(! [F,A,D][D,D][D,D][D,D] [D,D][D,D][D,D][D,D]!<)! | %27
 [^C,^F,=A,^C]!p![F,A,^C][F,A,^C][F,A,^C] !/![F,A,^C]4 | !/![=B,^C^E]4 !/![B,CE]4 | %29
!<(! !/![=A,^C^F]4 !/![A,CF]4!<)! | !/![^G,^C^E]4!>(! !/![^G,CE]4!>)! |!p! !/![A,_CF]4 !/![A,CF]4 | %32
 !/![A,CE]4 !/![A,CE]4 | [G,B,E][G,B,E][G,B,D][G,B,D] !/![G,B,D]4 | !/![A,C]4 !/![A,C]4 | %35
 !/![G,DF]4 !/![G,DF]4 | !/![G,DF]4 !/![G,DF]4 | !/![G,B,DF]4 !/![G,B,DF]4 | %38
!<(! !/![G,B,DF]4 !/![G,B,DF]4!<)! |!f! (3cF,A, (3CFA [cfac'] z z2 | z8 | !fermata![=E,B,C]8 | %42
[K:treble]!p! _g4 (fedc) | (e4 d2)!<(! (b>d')!<)! | [dd']4 (c'bag) | a4!<(! ([Bb]2 [=B=b]2)!<)! | %46
 [cc']4 ([Bb][Aa][Gg][Ff]) | [Ee]4 z4 | z8 | %49
!mf! (6:4:6z [E,A,][A,C][CE][A,C][E,A,][K:treble] (6:4:6[EA][CE][A,C][EB][DE][B,D] | %50
 (6:4:6z [A,C][CA][EG][B,E][G,B,] (6:4:6[EA][CE][A,C][DE][G,D][E,G,] | %51
 (6:4:6z [E,A,][A,C][CE][A,C][E,A,] (6:4:6[CE][A,C][E,A,][CF][A,C][F,A,] | %52
 (6:4:6z [G,C][C=E][EG][CE][G,C] (6:4:6z [G,=B,][B,F][FG][B,F][G,B,] | %53
 (6:4:6z [G,C][C=E][EG][CE][G,C] (6:4:6z [G,=B,][B,F][FG][B,F][G,B,] | %54
 (6:4:6z [G,C][C=E][EG][CE]!<(![G,C] (6:4:6z [G,=D][DG] z!<)! [G,D][DEG] | %55
 (6:4:6z [E,A,][A,C][CE][A,C][E,A,][K:treble] (6:4:6[EA][CE][A,C][EB][DE][B,D] | %56
 (6:4:6z [A,C][CA][EG][B,E][G,B,] (6:4:6[EA][CE][A,C][DE][G,D][E,G,] | %57
 (6:4:6z [G,B,][B,E][DG][B,E][G,B,] (6:4:6z [A,B,][B,=D][DF][B,D][A,B,] | g6 f2 | %59
 (6:4:6b[G,B,][B,E][EG][B,E][G,B,] [A,B,=D] z !fermata!z2 |!p! (6:4:6[G,E]EEEEE e4 | %61
 (defg) (g2 c2) | (Bcde) (e2 A2) | (de (3f)ag (g2 c2) | %64
 (6:4:6z [G,B,][G,B,][G,B,][G,B,][G,B,] (6:4:1!/![A,B,]6 | (6:4:1!/![G,B,]6 (6:4:1!/![A,B,]6 | %66
 [G,B,] z z2 z4 | z8 | z8 | z4 D4- | [B,D]4!pp! E4 | %71
 (6:4:6(C,/E,/A,/C/A,/E,/ (6:4:6C,/E,/A,/C/A,/E,/ (6:4:6C,/E,/A,/C/E/C/ (6:4:6D/E/D/=A,/B,/=B,/ | %72
 (6:4:6C/D/C/G,/A,/=A,/ (6:4:6B,/C/B,/F,/_G,/=G,/) (6:4:6(A,/A,/G,/A,/B,/A,/ (6:4:6C/A,/G,/A,/D/A,/) | %73
 (6:4:6(E/=D/F/E/_D/C/ (6:4:6B,/A,/_G,/F,/E,/D,/ (6:4:6C,/B,,/A,,/G,,/A,,/=A,,/ (6:4:6C,/B,,/_A,,/_G,,/F,,/E,,/) | %74
 (6:4:6z/ (D/F/D/F,/D/ (6:4:6G,/=E/G/E/G,/E/[K:treble] (6:4:6A,/F/A/F/A,/F/ (6:4:6B,/G/B/G/B,/G/) | %75
 (6:4:6(_C/A/_c/A/C/A/ (6:4:6C/A/c/A/C/A/ (6:4:6C/A/c/A/C/A/ (6:4:6C/A/c/A/C/A/) | %76
 (6:4:6(C/E/G/c/G/E/ (6:4:6C/A,/E/C/A,/[I:staff +1]E,/)[I:staff -1] z4 | z8 | %78
 (6:4:6z/ (F/E/D/C/B,/ (6:4:6=A,/B,/C/B,/A,/C/ (6:4:6B,/C/D/C/B,/_A,/ (6:4:6G,/A,/B,/A,/G,/B,/) | %79
 (6:4:6(A,/E/=D/_D/C/B,/ (6:4:6A,/B,/C/B,/A,/C/ (6:4:6B,/=A,/B,/[I:staff +1]F,/[I:staff -1]B,/_A,/ (6:4:6G,/A,/B,/A,/G,/B,/) | %80
 (6:4:6(A,/B,/C/B,/A,/G,/)[I:staff +1] (6:4:6(F,/A,/=B,/[I:staff -1]F/A/=B/ (6:4:6f/B/A/F/[I:staff +1]B,/A,/) (6:4:6(F,/=E,/F,/A,/G,/F,/) | %81
 (6:4:6(=E,/G,/[I:staff -1]C/=E/C/[I:staff +1]G,/) (6:4:6(F,/A,/=B,/[I:staff -1]F/A/=B/ (6:4:6f/B/A/F/[I:staff +1]B,/A,/) (6:4:6(F,/E,/F,/A,/G,/F,/) | %82
 (6:4:6(=E,/G,/[I:staff -1]C/=E/C/[I:staff +1]G,/) (6:4:6(F,/A,/=B,/[I:staff -1]F/A/=B/ (6:4:6f/B/A/F/D/F/ (6:4:6A/B/f/a/=b/f/) | %83
 [=bf'] z z2 z4 | %84
 (6:4:6z/[I:staff +1] (C,/=E,/=D,/F,/E,/ (6:4:6G,/^F,/A,/G,/[I:staff -1]C/[I:staff +1]C,/)[I:staff -1] (6:4:6z/[I:staff +1] (=D,/=F,/E,/G,/F,/ (6:4:6A,/G,/B,/A,/[I:staff -1]C/[I:staff +1]D,/) | %85
[I:staff -1] (6:4:6z/[I:staff +1] (=E,/G,/^F,/A,/G,/ (6:4:6B,/=A,/[I:staff -1]C/B,/D/[I:staff +1]E,/)[I:staff -1] z4 | %86
 z8 ||[M:2/4] z4 ||[M:12/8][K:bass]!pp! !/![F,A,C]3 !/![F,A,C]3 !/![F,A,C]3 !/![F,A,C]3 x2 | %89
 !/![F,A,C]3 !/![F,A,C]3 !/![F,A,C]3 !/![F,A,C]3 x2 | %90
 !/![F,A,D]3 !/![F,A,D]3 !/![F,A,D]3 !/![F,A,D]3 x2 | %91
 !/![F,G,=B,=D]3 !/![F,G,B,D]3 !/![F,G,B,D]3 !/![F,G,B,D]3 x2 | %92
 !/![F,G,B,D]3 !/![F,G,B,D]3 !/![F,G,B,D]3 !/![F,G,B,D]3 x2 | %93
 !/![F,A,C]3 !/![F,A,C]3 !/![F,A,C]3 !/![F,A,C]3 x2 | %94
 !/![F,A,=B,]3 !/![F,A,B,]3 !/![F,A,B,]3 !/![F,A,B,]3 x2 | %95
 !/![=E,G,C]3 !/![E,G,C]3 !/![E,G,C]3 !/![E,G,C]3 x2 | %96
 !/![F,A,C]3 !/![F,A,C]3 !/![F,A,C]3 !/![F,A,C]3 x2 | %97
 !/![G,B,C]3 !/![G,B,C]3 !/![G,B,C]3 !/![G,B,C]3 x2 | %98
 !/![A,CF]3 !/![A,CF]3 !/![A,CF]3 !/![A,CF]3 x2 | !/![G,C=E]3 !/![G,CE]3 !/![G,CE]3 !/![G,CE]3 x2 | %100
 !/![F,=A,C]3 !/![F,A,C]3 !/![F,A,C]3 !/![F,A,C]3 x2 | %101
 !/![E,_G,C]3 !/![E,G,C]3 !/![E,G,C]3 !/![E,G,C]3 x2 | %102
 !/![_G,=A,E]3 !/![G,A,E]3[K:treble] !/![A,C_G]3 !/![CEG=A]3 x2 | %103
 [DFB][DF][DF] [DF][DF][DF] [DF][DF][DF] [DF][DF][DF] x2 | %104
!p! !/![G,DF]3 !/![G,DF]3 !/![G,DF]3 !/![G,DF]3 x10/3 | %105
 !/![G,DF]3 !/![G,DF]3 !/![G,DF]3 !/![G,DF]3 x10/3 | %106
!mf!!<(! !/![G,B,DF]3 !/![G,B,DF]3 !/![G,B,DF]3 !/![G,B,DF]3!<)! x8/3 | %107
!f! [CFAc][I:staff +1](D,/C,/F,/=E,/ G,/F,/A,/G,/B,/A,/[I:staff -1] C/=B,/D/C/F/=E/ G/F/A/G/B/A/) x11/3 | %108
 (c/=B/d/c/f/=e/ g/f/a/g/b/a/ c'/) z/3 z2/3 z8/3 x13/6 |[M:4/4] [B,C=E]2 z2 !fermata!z4 | %110
!p! [A,CF]2[K:bass] !>![C,C]4 !>![C,C]2- | !>![C,C]2!<(! !>![C,C]4 !>![C,B,C]2- | %112
 !>![C,B,C]2 !>![C,A,C]4 !>![C,B,C]2-!<)! |!mf! !>![C,B,C]2 !>![F,F]4 !>![F,F]2- | %114
 !>![F,F]2 !>![F,DF]4 [B,C=E]2 | z2 !>![F,F]4 !>![F,F]2- | !>![F,F]2 !>![F,DF]4 [B,C=E]2 | %117
 [A,CF] !>![C,C]2 !>![C,C]2 !>![C,C]2 !>![C,C]- | [C,C] !>![C,C]2 !>![C,B,C]2 !>![C,A,C]2 [C,B,C] | %119
!f! !///-![A,F]2 F,2 !///-![A,F]2 F,2 | %120
!ff! [A,F][C,B,C][C,A,C][C,B,C] [C,A,C][C,B,C][C,A,C][C,B,C] | [C,A,C]2 z2[K:treble]!ff! [FAdf]4 | %122
 [fac'f']2 z2 z4 |] %123
V:4
 z2!p! .F,, z .F,,, z z2 | z2 .F,, z .F,,, z z2 | z2 .F,, z .F,,, z z2 | z2 .F,, z .F,,, z z2 | %4
 z2 .F,, z .F,,, z z2 | z2 .F,, z .F,,, z z2 | z2 .F,, z .F,,, z z2 | z2 .F,, z .F,,, z z2 | %8
 z2 .F,, z .F,,, z z2 | z2 .F,, z .F,,, z z2 | z2 .F,, z .F,,, z z2 | z2 .F,, z .F,,, z z2 | %12
 z2 .F,, z .F,,, z z2 | z2 .C,, z .C,,, z z2 | z2 .C, z .C,, z z2 | z2 .C, z .C,, z z2 | %16
 z2 .C, z .C,, z z2 | [C,,,C,,]8 | z2 (F,,=E,, G,,F,,) z2 | z2 (F,,=E,, _G,,F,,) z2 | %20
 z2 (A,,G,, B,,A,,) z2 | z2 (D,C, E,D,) z2 | z2 (_G,,F,, A,,G,,) z2 | z2 (_G,,F,, A,,G,,) z2 | %24
 z2 ([_G,,,_G,,][F,,,F,,] [A,,,A,,][G,,,G,,]) z2 | %25
 z2!p! ([A,,,A,,][G,,,G,,] [B,,,B,,][A,,,A,,]) z2 | D,,8 | z2!p! (^C,^B,, =D,^C,) z2 | %28
 z2 (^C,,^B,,, =D,,^C,,) z2 | z2 (^C,^B,, =D,^C,) z2 | z2 (^C,,^B,,, ^D,,^C,,) z2 | %31
 z2 (=D,,^C,, E,,D,,) z2 | z2 (E,,=D,, F,,E,,) z2 | z2 (=E,,^D,, F,,E,,) z2 | %34
 z2 (F,,=E,, G,,F,,) z2 | z2 (B,,=A,, C,B,,) z2 | %36
 z2!mf! [G,,,G,,]>[G,,,G,,] ([G,,,G,,]2 [D,,D,]2) | %37
 z2!f! [G,,,G,,]>[G,,,G,,] [G,,,G,,]2 [F,,F,]2- | %38
 [F,,F,][F,,F,][E,,E,][D,,D,] [C,,C,][B,,,B,,][A,,,A,,][G,,,G,,] | %39
!f! (3[C,,,C,,][F,,,F,,][A,,,A,,] (3[C,,C,][F,,F,][A,,A,] [C,C] z z2 | z8 | z8 | %42
 [F,,,F,,][F,=A,CE][F,A,CE][F,A,CE] !/![F,A,CE]4 | [F,,,F,,][F,B,E][F,B,E][F,B,E] !/![F,B,D]4 | %44
 [F,,,F,,][F,G,B,D=E][F,G,B,DE][F,G,B,DE] !/![F,G,B,DE]4 | %45
 [F,,,F,,][F,A,C][F,A,C][F,A,C] [_F,A,D][F,A,D][F,A,=D][F,A,D] | %46
 [E,,,E,,][E,A,CE][E,A,CE][E,A,CE] !/![E,A,CE]4 | [E,G,D]4 z4 | z8 | [A,,,A,,]8 | [A,,,A,,]8 | %51
 [A,,,A,,]6 [F,,,F,,]2 | [C,,,C,,]4 [G,,G,]4 | [C,,C,]4 [G,,G,]4 | %54
 [C,,C,]2 ([C,,C,]2 [=B,,,=B,,]2 [_B,,,_B,,]2) | [A,,,A,,]8 | [A,,,A,,]6 [A,,,A,,]2 | %57
 [B,,,B,,]4 [B,,,B,,]4 | %58
 (6:4:6[B,,,B,,][G,B,][B,E][EG][B,E][G,B,] (6:4:6[B,,,B,,][A,B,][B,=D][DF][B,D][A,B,] | %59
 [B,,,B,,]4- [B,,,B,,] z !fermata!z2 | ([E,,E,]2 D2) (6:4:6EEEEEE | (6:4:6EEEEEE (6:4:6EEEEEE | %62
 (6:4:6EEEEEE (6:4:6EEEEEE | (6:4:6EEEEEE (6:4:6EEEEEE | %64
!p! [G,E] z z2 z2 ([_F,,,_F,,]>!>(![E,,,E,,]) | [E,,,E,,]!>)! z z2 z2[K:treble] (f>!>(!e) | %66
 e!>)! z z2[K:bass] z4 | z8 | z8 | z8 | z4 [E,,E,]4 | [A,,,A,,]8 | [A,,,A,,]8 | %73
 [A,,,A,,]2 C,,2 E,,2 A,,,2 | [D,,D,]8- | [D,,D,]2 A,,2 F,,2 =D,,2 | [E,,E,]4 E,, z z2 | z8 | %78
 (E,,2 E,2 E,,2 E,2 | E,,2 E,2 E,,2 =E,,2) | F,,2 D,,4 D,,2 | %81
 (6:4:6(C,,/=E,,/G,,/C,/G,,/E,,/) D,,4 (6:4:6(D,,/C,,/D,,/F,,/_E,,/D,,/) | %82
 (6:4:6(C,,/=E,,/G,,/C,/G,,/E,,/) (6:4:6(D,,/F,,/A,,/D,/F,/A,/ (6:4:6D/A,/F,/D,/F,/A,/ (6:4:6D/[I:staff -1]F/A/d/F/A/) | %83
 [DFAd][I:staff +1] z z2 z4 | %84
 (6:4:6z/ (C,,/=E,,/=D,,/F,,/E,,/ (6:4:6G,,/^F,,/A,,/G,,/C,/C,,/) (6:4:6z/ (=D,,/=F,,/E,,/G,,/F,,/ (6:4:6A,,/G,,/B,,/A,,/C,/D,,/) | %85
 (6:4:6z/ (=E,,/G,,/^F,,/A,,/G,,/ (6:4:6B,,/=A,,/C,/B,,/D,/E,,/) z4 | z8 ||[M:2/4] z4 || %88
[M:12/8] x4 z2/3!p! (F,,/=E,,/G,,/F,,/ A,,/G,,/B,,/A,,/C,/=B,,/ D,/C,/) z2/3 z2/3 z4/3 z2/3 | %89
 x4 z2/3[K:treble] (F/=E/G/F/ A/G/B/A/c/=B/ d/c/) z2/3 z2/3 z4/3 z2/3 | %90
 x4 z2/3[K:bass] (F,,/=E,,/_G,,/F,,/ A,,/=G,,/B,,/A,,/D,/C,/ E,/D,/) z2/3 z2/3 z4/3 z2/3 | %91
 x4 z2/3[K:treble] (G/^F/=A/G/ =B/^A/c/B/=d/^c/ =e/d/) z2/3 z2/3 z4/3 z2/3 | %92
 x4 z2/3[K:bass] (F,,/=E,,/G,,/F,,/ B,,/=A,,/C,/=B,,/D,/C,/ E,/D,/) z2/3 z2/3 z4/3 z2/3 | %93
 x4 z2/3[K:treble] (F/=E/G/F/ A/G/B/=A/c/=B/ d/c/) z2/3 z2/3 z4/3 z2/3 | %94
 x4 z2/3[K:bass] (F,,/=E,,/_G,,/F,,/ A,,/=G,,/B,,/A,,/D,/C,/ E,/D,/) z2/3 z2/3 z4/3 z2/3 | %95
 x4 z2/3[K:treble] (c/=B/=d/c/ =e/d/f/e/g/^f/ a/g/) z2/3 z2/3 z4/3 z2/3 | %96
 x4 z2/3[K:bass] (C,,/=B,,,/D,,/C,,/ G,,/F,,/B,,/A,,/C,/=B,,/ D,/C,/) z2/3 z2/3 z4/3 z2/3 | %97
 x4 z2/3[K:treble] (c/=B/=d/c/ =e/^d/f/e/g/^f/ a/g/) z2/3 z2/3 z2/3 z4/3 | %98
 x4 z2/3[K:bass] (C,,/=B,,,/D,,/C,,/ G,,/F,,/B,,/A,,/C,/=B,,/ D,/C,/) z2/3 z2/3 z4/3 z2/3 | %99
 x4 z2/3[K:treble] (c/=B/=d/c/ =e/d/f/e/g/^f/ a/g/) z2/3 z2/3 z4/3 z2/3 | %100
 x4 z2/3[K:bass] (F,,/=E,,/G,,/F,,/ =A,,/G,,/B,,/A,,/C,/=B,,/ =D,/C,/) z2/3 z2/3 z4/3 z2/3 | %101
 x4 z2/3[K:treble] (c/=B/d/c/ e/=d/f/e/_g/f/ a/g/) z2/3 z2/3 z4/3 z2/3 | %102
 x4 z2/3[K:bass] (C,/=B,,/D,/C,/ E,/=D,/F,/E,/_G,/F,/ A,/G,/) z2/3 z2/3 z4/3 z2/3 | %103
 x4 z2/3[K:treble]!p! (B/=A/c/B/ d/c/e/d/f/=e/ _g/f/) z2/3 z2/3 z4/3 z2/3 | %104
 x4 z2/3[K:bass] (G,,/^F,,/A,,/G,,/ B,,/=A,,/C,/B,,/E,/D,/) z2/3[K:treble] (G/^F/A/G/ B/=A/c/B/e/d/) | %105
 x4 z2/3[K:bass] (G,,/^F,,/A,,/G,,/ B,,/=A,,/C,/B,,/E,/D,/) z2/3[K:treble] (G/^F/A/G/ B/=A/c/B/e/d/) | %106
 x4 z2/3[K:bass] (G,,/^F,,/A,,/G,,/) z2/3[K:treble] (d/c/e/d/) z2/3[K:bass] (G,,/F,,/A,,/G,,/) z2/3[K:treble] (d/c/e/d/) | %107
 x4 z2/3 (D,,/C,,/F,,/=E,,/ G,,/F,,/A,,/G,,/B,,/A,,/ C,/=B,,/D,/C,/F,/=E,/ G,/F,/A,/G,/B,/A,/) | %108
 x13/6 (C/=B,/[I:staff -1]D/C/F/=E/ G/F/A/G/B/A/ c/)[I:staff +1] z/3 z2/3 z8/3 | %109
[M:4/4] [C,,C,]2 z2 !fermata!z4 | !>![F,,,F,,]4 !>![C,,,C,,]4 | !>![F,,,F,,]4 !>![C,,,C,,]4 | %112
 !>![F,,,F,,]4 !>![C,,,C,,]4 | !>![F,,,F,,]4 !>![D,,D,]4 | !>![G,,,G,,]4 !>![C,,C,]4 | %115
 !>![F,,,F,,]4 !>![D,,D,]4 | !>![G,,,G,,]4 !>![C,,C,]4 | %117
 [F,,,F,,]2 [C,,,C,,]2 [F,,,F,,]2 [C,,,C,,]2 | [F,,,F,,]2 [C,,,C,,]2 [F,,,F,,]2 [C,,,C,,]2 | %119
 !///-!F,,,2 F,,2 !///-!F,,,2 F,,2 | %120
 [F,,,F,,][C,,,C,,][F,,,F,,][C,,,C,,] [F,,,F,,][C,,,C,,][F,,,F,,][C,,,C,,] | %121
 [F,,,F,,]2 z2 [D,F,A,D]4 | [F,,,F,,]2 z2 z4 |] %123
V:5
 x8 | x8 | x8 | x8 | x8 | x8 | x8 | x8 | x8 | x8 | x8 | x8 | x8 | x8 | x8 | x8 | x8 | %17
 x2 (B,2 G,2 [=E,B,]2) | x8 | x8 | x8 | x8 | x8 | x8 | x8 | x8 | x8 | x8 | x8 | x8 | x8 | x8 | x8 | %33
 x8 | x8 | x8 | x8 | x8 | x8 | x8 | x8 | x8 | x8 | x8 | x8 | x8 | x8 | x8 | x8 | x8 | x8 | x8 | %52
 x8 | x8 | x8 | x8 | x8 | x8 | x8 | x8 | x4 C4 | B,4 A,4 | G,4 C4 | B,4 A,4 | x8 | %65
 x6[K:treble] x2 | x4[K:bass] x4 | x8 | x8 | x8 | x8 | x8 | x8 | x8 | x8 | x8 | x8 | x8 | x8 | x8 | %80
 x8 | x8 | x8 | x8 | x8 | x8 | x8 ||[M:2/4] x4 ||[M:12/8] x14 | x14/3[K:treble] x28/3 | %90
 x14/3[K:bass] x28/3 | x14/3[K:treble] x28/3 | x14/3[K:bass] x28/3 | x14/3[K:treble] x28/3 | %94
 x14/3[K:bass] x28/3 | x14/3[K:treble] x28/3 | x14/3[K:bass] x28/3 | x14/3[K:treble] x28/3 | %98
 x14/3[K:bass] x28/3 | x14/3[K:treble] x28/3 | x14/3[K:bass] x28/3 | x14/3[K:treble] x28/3 | %102
 x14/3[K:bass] x28/3 | x14/3[K:treble] x28/3 | x14/3[K:bass] x17/3[K:treble] x5 | %105
 x14/3[K:bass] x17/3[K:treble] x5 | x14/3[K:bass] x8/3[K:treble] x8/3[K:bass] x8/3[K:treble] x2 | %107
 x47/3 | x37/3 |[M:4/4] x8 | x8 | x8 | x8 | x8 | x8 | x8 | x8 | x8 | x8 | x8 | x8 | x8 | x8 |] %123

